icons/square-plus.svg

<svg width="24" height="24" viewBox="0 0 24 24" fill="none" xmlns="http://www.w3.org/2000/svg">
<path fill-rule="evenodd" clip-rule="evenodd" d="M3 4C3 3.44772 3.44772 3 4 3H20C20.5523 3 21 3.44772 21 4V20C21 20.5523 20.5523 21 20 21H4C3.44772 21 3 20.5523 3 20V4ZM5 5V19H19V5H5ZM12 7C12.5523 7 13 7.44772 13 8V11H16C16.5523 11 17 11.4477 17 12C17 12.5523 16.5523 13 16 13H13V16C13 16.5523 12.5523 17 12 17C11.4477 17 11 16.5523 11 16V13H8C7.44772 13 7 12.5523 7 12C7 11.4477 7.44772 11 8 11H11V8C11 7.44772 11.4477 7 12 7Z" fill="black"/>
</svg>

<svg
  width="24"
  height="24"
  viewBox="0 0 24 24"
  xmlns="http://www.w3.org/2000/svg"
>
  <path
    fill-rule="evenodd"
    clip-rule="evenodd"
    d="M3 4a1 1 0 0 1 1-1h16a1 1 0 0 1 1 1v16a1 1 0 0 1-1 1H4a1 1 0 0 1-1-1V4zm2 1v14h14V5H5zm7 2a1 1 0 0 1 1 1v3h3a1 1 0 1 1 0 2h-3v3a1 1 0 1 1-2 0v-3H8a1 1 0 1 1 0-2h3V8a1 1 0 0 1 1-1z"
  />
</svg>
